X: 10292
T: Mrs Mc DONALD OF CLANRANNALD'S REEL
R: reel
B: "Edinburgh Repository of Music" v.1 p.29 #2
F: http://digital.nls.uk/special-collections-of-printed-music/pageturner.cfm?id=87776133
Z: 2015 John Chambers <jc:trillian.mit.edu>
M: C
L: 1/8
K: Em
e |\
E/E/E TB>A GDDF | E/E/E B>A GABG |\
(cd)(Bc) ADFD | E/E/E (TB>A) GEE :|\
g |\
eBe^c dDDf | eBe^d efe^c |
dfBd ADFD | E/E/E B>A GEEg |\
eBe^c dDDf | eBe^d efe^c |\
dfBd ABFA | GBAB GEE |]

%%sep 2 1 500
%%sep 1 1 500

